;START_OF_HEADER
;HEADER_VERSION:0.1
;FLAVOR:Griffin
;GENERATOR.NAME:Cura_SteamEngine
;GENERATOR.VERSION:5.10.2
;GENERATOR.BUILD_DATE:2025-07-28
;TARGET_MACHINE.NAME:Ultimaker S5
;EXTRUDER_TRAIN.0.INITIAL_TEMPERATURE:195
;EXTRUDER_TRAIN.0.MATERIAL.VOLUME_USED:17119
;EXTRUDER_TRAIN.0.MATERIAL.GUID:506c9f0d-e3aa-4bd4-b2d2-23e2425b1aa9
;EXTRUDER_TRAIN.0.NOZZLE.DIAMETER:0.4
;EXTRUDER_TRAIN.0.NOZZLE.NAME:AA 0.4
;BUILD_PLATE.INITIAL_TEMPERATURE:60
;BUILD_VOLUME.TEMPERATURE:28
;PRINT.TIME:4689
;PRINT.GROUPS:1
;PRINT.SIZE.MIN.X:98.237
;PRINT.SIZE.MIN.Y:62.619
;PRINT.SIZE.MIN.Z:0.28
;PRINT.SIZE.MAX.X:330
;PRINT.SIZE.MAX.Y:237
;PRINT.SIZE.MAX.Z:20.001
;SLICE_UUID:cd326058-1365-4193-aa14-bf3abd111756
;END_OF_HEADER
;Generated with Cura_SteamEngine 5.10.2
T0

M82 ;absolute extrusion mode
G92 E0
M190 S60
M104 S195
M109 S195
G280 S1
G0 Z20.001
G1 F2700 E-6.5
;LAYER_COUNT:68
G0 F9000 X330 Y237
;LAYER:0
M106 S255
M204 S1000
M205 X20 Y20
G1 F600 Z2.28
G0 F9000 X177.122 Y139.746 Z2.28
;TYPE:SKIRT
G1 F600 Z0.28
G1 F2700 E0
G1 F1800 X175.554 Y141.807 E0.04547
G1 X173.667 Y143.164 E0.08627
G1 X171.319 Y143.817 E0.12906
G1 X165.578 Y143.822 E0.22985
G1 X163.57 Y143.284 E0.26635
G1 X161.785 Y142.095 E0.304
G1 X160.089 Y140.146 E0.34936
G1 X159.339 Y137.48 E0.39798
G1 X159.34 Y131.733 E0.49888
G1 X160.309 Y129.083 E0.54842
G1 X162.092 Y127.026 E0.59621
G1 X164.487 Y125.749 E0.64386
G1 X165.606 Y125.519 E0.66392
G1 X171.43 Y125.51 E0.76617
G1 X174.015 Y126.334 E0.8138
G1 X176.009 Y128.156 E0.86122
G1 X177.362 Y130.416 E0.90747
G1 X177.646 Y132.314 E0.94116
G1 X177.678 Y137.549 E1.03307
G1 X177.122 Y139.746 E1.07286
G0 F9000 X176.754 Y139.57
G1 F1800 X175.273 Y141.517 E1.11581
G1 X173.491 Y142.798 E1.15434
G1 X171.266 Y143.417 E1.19488
G1 X165.63 Y143.422 E1.29383
G1 X163.738 Y142.915 E1.32822
G1 X162.052 Y141.792 E1.36379
G1 X160.449 Y139.95 E1.40666
G1 X159.739 Y137.425 E1.45271
G1 X159.74 Y131.804 E1.55139
G1 X160.66 Y129.289 E1.59841
G1 X162.345 Y127.344 E1.64359
G1 X164.624 Y126.129 E1.68893
G1 X165.647 Y125.919 E1.70726
G1 X171.369 Y125.91 E1.80772
G1 X173.81 Y126.688 E1.8527
G1 X175.695 Y128.411 E1.89754
G1 X176.978 Y130.553 E1.94137
G1 X177.25 Y132.373 E1.97368
G1 X177.278 Y137.5 E2.0637
G1 X176.754 Y139.57 E2.10118
G0 F9000 X176.386 Y139.394
G1 F1800 X174.993 Y141.225 E2.14157
G1 X173.313 Y142.433 E2.1779
G1 X171.213 Y143.017 E2.21617
G1 X165.682 Y143.022 E2.31328
G1 X163.906 Y142.546 E2.34556
G1 X162.319 Y141.489 E2.37903
G1 X160.809 Y139.754 E2.41941
G1 X160.139 Y137.37 E2.46289
G1 X160.14 Y131.875 E2.55936
G1 X161.011 Y129.494 E2.60388
G1 X162.598 Y127.662 E2.64643
G1 X164.76 Y126.51 E2.68944
G1 X165.689 Y126.319 E2.70609
G1 X171.308 Y126.31 E2.80474
G1 X173.605 Y127.042 E2.84706
G1 X175.381 Y128.666 E2.88932
G1 X176.594 Y130.69 E2.93074
G1 X176.854 Y132.432 E2.96167
G1 X176.878 Y137.451 E3.04978
G1 X176.386 Y139.394 E3.08497
G0 F9000 X176.018 Y139.218
G1 F1800 X174.713 Y140.933 E3.12281
G1 X173.135 Y142.068 E3.15693
G1 X171.16 Y142.617 E3.19292
G1 X165.734 Y142.622 E3.28818
G1 X164.074 Y142.177 E3.31836
G1 X162.586 Y141.186 E3.34974
G1 X161.169 Y139.558 E3.38764
G1 X160.539 Y137.315 E3.42854
G1 X160.54 Y131.946 E3.5228
G1 X161.362 Y129.699 E3.56481
G1 X162.851 Y127.98 E3.60473
G1 X164.897 Y126.89 E3.64543
G1 X165.73 Y126.719 E3.66036
G1 X171.247 Y126.71 E3.75722
G1 X173.4 Y127.396 E3.79689
G1 X175.069 Y128.922 E3.8366
G1 X176.209 Y130.826 E3.87556
G1 X176.458 Y132.491 E3.90512
G1 X176.478 Y137.401 E3.99132
G1 X176.018 Y139.218 E4.02423
G0 F9000 X175.65 Y139.042
G1 F1800 X174.432 Y140.643 E4.05954
G1 X172.959 Y141.702 E4.09139
G1 X171.107 Y142.217 E4.12514
G1 X165.785 Y142.222 E4.21858
G1 X164.243 Y141.809 E4.2466
G1 X162.853 Y140.883 E4.27593
G1 X161.529 Y139.362 E4.31133
G1 X160.939 Y137.26 E4.34966
G1 X160.94 Y132.017 E4.44171
G1 X161.713 Y129.904 E4.48121
G1 X163.104 Y128.298 E4.51851
G1 X165.033 Y127.271 E4.55688
G1 X165.772 Y127.119 E4.57013
G1 X171.186 Y127.11 E4.66518
G1 X173.195 Y127.75 E4.70219
G1 X174.755 Y129.177 E4.73931
G1 X175.825 Y130.963 E4.77586
G1 X176.062 Y132.55 E4.80404
G1 X176.078 Y137.351 E4.88833
G1 X175.65 Y139.042 E4.91895
G0 F9000 X175.282 Y138.866
G1 F1800 X174.152 Y140.351 E4.95171
G1 X172.781 Y141.337 E4.98136
G1 X171.054 Y141.817 E5.01283
G1 X165.837 Y141.822 E5.10442
G1 X164.411 Y141.44 E5.13034
G1 X163.118 Y140.579 E5.15761
G1 X161.89 Y139.167 E5.19047
G1 X161.339 Y137.205 E5.22624
G1 X161.34 Y132.088 E5.31608
G1 X162.064 Y130.109 E5.35308
G1 X163.357 Y128.616 E5.38775
G1 X165.17 Y127.651 E5.42381
G1 X165.813 Y127.519 E5.43533
G1 X171.125 Y127.51 E5.5286
G1 X172.99 Y128.104 E5.56296
G1 X174.443 Y129.433 E5.59753
G1 X175.44 Y131.099 E5.63162
G1 X175.666 Y132.609 E5.65842
G1 X175.678 Y137.301 E5.7408
G1 X175.282 Y138.866 E5.76914
G0 F9000 X174.914 Y138.69
G1 F1800 X173.871 Y140.061 E5.79938
G1 X172.605 Y140.971 E5.82676
G1 X171.001 Y141.417 E5.85598
G1 X165.889 Y141.422 E5.94573
G1 X164.579 Y141.071 E5.96954
G1 X163.385 Y140.276 E5.99473
G1 X162.25 Y138.971 E6.02509
G1 X161.739 Y137.15 E6.0583
G1 X161.74 Y132.159 E6.14592
G1 X162.415 Y130.314 E6.18041
G1 X163.61 Y128.934 E6.21246
G1 X165.358 Y128.004 E6.24723
G1 X165.814 Y127.919 E6.25537
G1 X171.063 Y127.91 E6.34752
G1 X172.785 Y128.459 E6.37925
G1 X174.129 Y129.688 E6.41123
G1 X175.056 Y131.236 E6.44291
G1 X175.27 Y132.668 E6.46833
G1 X175.278 Y137.251 E6.54879
G1 X174.914 Y138.69 E6.57485
G0 F9000 X174.546 Y138.514
G1 F1800 X173.591 Y139.769 E6.60254
G1 X172.427 Y140.606 E6.62771
G1 X170.948 Y141.017 E6.65466
G1 X165.941 Y141.022 E6.74256
G1 X164.747 Y140.702 E6.76426
G1 X163.652 Y139.973 E6.78736
G1 X162.61 Y138.775 E6.81523
G1 X162.139 Y137.096 E6.84585
G1 X162.14 Y132.23 E6.93128
G1 X162.766 Y130.519 E6.96327
G1 X163.863 Y129.252 E6.99269
G1 X165.491 Y128.386 E7.02506
G1 X165.815 Y128.319 E7.03087
G1 X171.002 Y128.31 E7.12194
G1 X172.58 Y128.813 E7.15102
G1 X173.815 Y129.943 E7.1804
G1 X174.672 Y131.373 E7.20967
G1 X174.874 Y132.727 E7.23371
G1 X174.878 Y137.201 E7.31226
G1 X174.546 Y138.514 E7.33603
G0 F9000 X174.178 Y138.338
G1 F1800 X173.311 Y139.477 E7.36116
G1 X172.249 Y140.241 E7.38413
G1 X170.895 Y140.617 E7.4088
G1 X165.993 Y140.622 E7.49487
G1 X164.915 Y140.333 E7.51446
G1 X163.919 Y139.67 E7.53547
G1 X162.97 Y138.579 E7.56085
G1 X162.539 Y137.042 E7.58888
G1 X162.54 Y132.301 E7.67211
G1 X163.117 Y130.724 E7.7016
G1 X164.116 Y129.57 E7.72839
G1 X165.629 Y128.766 E7.75847
G1 X165.816 Y128.719 E7.76186
G1 X170.941 Y128.71 E7.85184
G1 X172.375 Y129.167 E7.87826
G1 X173.503 Y130.199 E7.9051
G1 X174.287 Y131.509 E7.9319
G1 X174.478 Y132.786 E7.95457
G1 X174.478 Y137.151 E8.03121
G1 X174.178 Y138.338 E8.0527
G0 F9000 X173.81 Y138.162
G1 F1800 X173.03 Y139.187 E8.07532
G1 X172.073 Y139.875 E8.09601
G1 X170.842 Y140.217 E8.11844
G1 X166.045 Y140.222 E8.20266
G1 X165.083 Y139.964 E8.22014
G1 X164.186 Y139.367 E8.23906
G1 X163.33 Y138.383 E8.26196
G1 X162.939 Y136.988 E8.28739
G1 X162.94 Y132.373 E8.36842
G1 X163.468 Y130.931 E8.39538
G1 X164.371 Y129.887 E8.41961
G1 X165.817 Y129.119 E8.44836
G1 X170.88 Y129.11 E8.53725
G1 X172.17 Y129.521 E8.56101
G1 X173.191 Y130.455 E8.58531
G1 X173.903 Y131.646 E8.60967
G1 X174.078 Y132.786 E8.62992
G1 X174.078 Y137.101 E8.70568
G1 X173.81 Y138.162 E8.72489
G0 F9000 X173.442 Y137.986
G1 F1800 X172.75 Y138.895 E8.74495
G1 X171.895 Y139.51 E8.76344
G1 X170.789 Y139.817 E8.78359
G1 X166.097 Y139.822 E8.86596
G1 X165.251 Y139.595 E8.88134
G1 X164.453 Y139.064 E8.89817
G1 X163.69 Y138.187 E8.91858
G1 X163.339 Y136.934 E8.94142
G1 X163.34 Y132.446 E9.02022
G1 X163.819 Y131.138 E9.04467
G1 X164.627 Y130.203 E9.06637
G1 X165.916 Y129.519 E9.09199
G1 X170.819 Y129.51 E9.17807
G1 X171.965 Y129.875 E9.19918
G1 X172.879 Y130.711 E9.22093
G1 X173.52 Y131.783 E9.24286
G1 X173.678 Y132.786 E9.26068
G1 X173.678 Y137.051 E9.33556
G1 X173.442 Y137.986 E9.35249
G0 F9000 X173.074 Y137.81
G1 F1800 X172.469 Y138.605 E9.37003
G1 X171.719 Y139.144 E9.38625
G1 X170.736 Y139.417 E9.40416
G1 X166.148 Y139.422 E9.48471
G1 X165.42 Y139.227 E9.49794
G1 X164.72 Y138.761 E9.5127
G1 X164.05 Y137.991 E9.53062
G1 X163.739 Y136.88 E9.55088
G1 X163.74 Y132.517 E9.62748
G1 X164.169 Y131.345 E9.64939
G1 X164.883 Y130.519 E9.66856
G1 X166.015 Y129.919 E9.69105
G1 X170.758 Y129.91 E9.77432
G1 X171.76 Y130.229 E9.79278
G1 X172.567 Y130.967 E9.81198
G1 X173.137 Y131.92 E9.83148
G1 X173.278 Y132.786 E9.84688
G1 X173.278 Y137.001 E9.92088
G1 X173.074 Y137.81 E9.93553
G0 F9000 X172.706 Y137.634
G1 F1800 X172.189 Y138.313 E9.95051
G1 X171.541 Y138.779 E9.96453
G1 X170.683 Y139.017 E9.98016
G1 X166.198 Y139.022 E10.0589
G1 X165.589 Y138.859 E10.06997
G1 X164.985 Y138.457 E10.08271
G1 X164.411 Y137.797 E10.09806
G1 X164.139 Y136.826 E10.11577
G1 X164.14 Y132.588 E10.19017
G1 X164.519 Y131.552 E10.20954
G1 X165.137 Y130.837 E10.22613
G1 X166.116 Y130.319 E10.24558
G1 X170.697 Y130.31 E10.326
G1 X171.555 Y130.583 E10.34181
G1 X172.255 Y131.223 E10.35846
G1 X172.755 Y132.059 E10.37556
G1 X172.878 Y132.786 E10.38851
G1 X172.878 Y136.951 E10.46163
G1 X172.706 Y137.634 E10.474
G0 F9000 X172.338 Y137.457
G1 F1800 X171.907 Y138.022 E10.48647
G1 X171.363 Y138.414 E10.49824
G1 X170.63 Y138.617 E10.5116
G1 X166.198 Y138.622 E10.58941
G1 X165.811 Y138.526 E10.59641
G1 X165.252 Y138.154 E10.6082
G1 X164.771 Y137.601 E10.62107
G1 X164.539 Y136.772 E10.63618
G1 X164.54 Y132.659 E10.70839
G1 X164.869 Y131.759 E10.72521
G1 X165.391 Y131.155 E10.73923
G1 X166.216 Y130.719 E10.75561
G1 X170.636 Y130.71 E10.83321
G1 X171.35 Y130.937 E10.84636
G1 X171.943 Y131.479 E10.86047
G1 X172.373 Y132.198 E10.87518
G1 X172.478 Y132.786 E10.88566
G1 X172.478 Y136.901 E10.95791
G1 X172.338 Y137.457 E10.96797
G0 F9000 X171.969 Y137.282
G1 F1800 X171.658 Y137.709 E10.97725
G1 X171.256 Y138.028 E10.98626
G1 X170.573 Y138.217 E10.9987
G1 X166.198 Y138.222 E11.07551
G1 X165.976 Y138.155 E11.07958
G1 X165.474 Y137.821 E11.09017
G1 X165.132 Y137.407 E11.09959
G1 X164.939 Y136.718 E11.11216
G1 X164.94 Y132.731 E11.18215
G1 X165.221 Y131.964 E11.1965
G1 X165.644 Y131.474 E11.20786
G1 X166.316 Y131.119 E11.2212
G1 X170.637 Y131.11 E11.29707
G1 X171.146 Y131.292 E11.30656
G1 X171.629 Y131.734 E11.31805
G1 X171.992 Y132.34 E11.33045
G1 X172.078 Y132.786 E11.33843
G1 X172.078 Y136.901 E11.41067
G1 X171.969 Y137.282 E11.41763
G0 F9000 X171.591 Y137.15
G1 F1800 X171.345 Y137.46 E11.42458
G1 X171.072 Y137.664 E11.43056
G1 X170.52 Y137.817 E11.44062
G1 X166.198 Y137.822 E11.5165
G1 X165.696 Y137.488 E11.52708
G1 X165.494 Y137.218 E11.533
G1 X165.339 Y136.664 E11.5431
G1 X165.34 Y132.804 E11.61087
G1 X165.573 Y132.169 E11.62275
G1 X165.947 Y131.735 E11.6328
G1 X166.414 Y131.519 E11.64184
G1 X170.638 Y131.51 E11.716
G1 X170.886 Y131.596 E11.7206
G1 X171.286 Y131.939 E11.72986
G1 X171.612 Y132.484 E11.741
G1 X171.678 Y132.786 E11.74643
G1 X171.678 Y136.901 E11.81868
G1 X171.591 Y137.15 E11.82331
G0 F9000 X170.878 Y136.777
G1 F1800 X170.729 Y136.95 E11.82732
G1 X170.52 Y137.017 E11.83117
G1 X166.379 Y137.022 E11.90387
G1 X166.207 Y136.873 E11.90787
G1 X166.139 Y136.664 E11.91173
G1 X166.14 Y132.877 E11.97821
G1 X166.317 Y132.465 E11.98608
G1 X166.491 Y132.319 E11.99007
G1 X170.516 Y132.31 E12.06074
G1 X170.689 Y132.458 E12.06473
G1 X170.878 Y132.786 E12.07138
G1 X170.878 Y136.777 E12.14145
G0 F9000 X171.278 Y136.901
G1 F1800 X171.032 Y137.211 E12.1484
G1 X170.851 Y137.331 E12.15221
G1 X170.52 Y137.417 E12.15821
G1 X166.255 Y137.422 E12.23309
G1 X165.945 Y137.175 E12.24005
G1 X165.827 Y136.997 E12.2438
G1 X165.739 Y136.664 E12.24985
G1 X165.74 Y132.877 E12.31633
G1 X165.949 Y132.307 E12.32699
G1 X166.234 Y132.013 E12.33418
G1 X166.415 Y131.919 E12.33776
G1 X170.639 Y131.91 E12.41192
G1 X170.949 Y132.154 E12.41885
G1 X171.225 Y132.586 E12.42785
G1 X171.278 Y132.786 E12.43148
G1 X171.278 Y136.901 E12.50372
G1 F2700 E6.00372
G0 F9000 X173.56 Y136.901
G0 X173.552 Y130.64
G0 X171.295 Y118.264
G1 F2700 E12.50372
G1 F1800 X165.827 Y118.264 E12.59972
G1 X163.638 Y117.708 E12.63938
G1 X161.577 Y116.141 E12.68483
G1 X160.201 Y114.233 E12.72613
G1 X159.569 Y111.932 E12.76802
G1 X159.569 Y106.424 E12.86473
G1 X160.125 Y104.219 E12.90465
G1 X161.85 Y101.968 E12.95444
G1 X163.837 Y100.738 E12.99547
G1 X165.932 Y100.156 E13.03364
G1 X171.41 Y100.156 E13.12981
G1 X173.615 Y100.712 E13.16974
G1 X175.866 Y102.437 E13.21953
G1 X177.096 Y104.424 E13.26056
G1 X177.678 Y106.519 E13.29873
G1 X177.678 Y112.097 E13.39666
G1 X177.058 Y114.22 E13.43549
G1 X176.52 Y115.149 E13.45434
G1 X174.901 Y116.813 E13.4951
G1 X173.449 Y117.714 E13.5251
G1 X171.295 Y118.264 E13.56413
G0 F9000 X171.243 Y117.864
G1 F1800 X165.878 Y117.864 E13.65832
G1 X163.814 Y117.34 E13.6957
G1 X161.866 Y115.859 E13.73867
G1 X160.568 Y114.059 E13.77763
G1 X159.969 Y111.877 E13.81735
G1 X159.969 Y106.474 E13.91221
G1 X160.493 Y104.395 E13.94985
G1 X162.121 Y102.271 E13.99684
G1 X164.001 Y101.107 E14.03566
G1 X165.985 Y100.556 E14.07181
G1 X171.36 Y100.556 E14.16617
G1 X173.439 Y101.08 E14.20382
G1 X175.563 Y102.708 E14.2508
G1 X176.727 Y104.588 E14.28962
G1 X177.278 Y106.572 E14.32577
G1 X177.278 Y112.04 E14.42177
G1 X176.687 Y114.063 E14.45877
G1 X176.2 Y114.904 E14.47583
G1 X174.648 Y116.499 E14.5149
G1 X173.291 Y117.341 E14.54294
G1 X171.243 Y117.864 E14.58005
G0 F9000 X171.191 Y117.464
G1 F1800 X165.929 Y117.464 E14.67243
G1 X163.99 Y116.972 E14.70755
G1 X162.155 Y115.577 E14.74802
G1 X160.935 Y113.885 E14.78465
G1 X160.369 Y111.822 E14.8222
G1 X160.369 Y106.524 E14.91522
G1 X160.861 Y104.573 E14.95054
G1 X162.395 Y102.571 E14.99482
G1 X164.163 Y101.477 E15.03132
G1 X166.038 Y100.956 E15.06549
G1 X171.31 Y100.956 E15.15805
G1 X173.261 Y101.448 E15.19337
G1 X175.263 Y102.982 E15.23765
G1 X176.357 Y104.75 E15.27416
G1 X176.878 Y106.625 E15.30832
G1 X176.878 Y111.983 E15.40239
G1 X176.317 Y113.904 E15.43752
G1 X175.879 Y114.66 E15.45286
G1 X174.395 Y116.185 E15.49022
G1 X173.133 Y116.968 E15.5163
G1 X171.191 Y117.464 E15.55148
G0 F9000 X171.139 Y117.064
G1 F1800 X165.98 Y117.064 E15.64206
G1 X164.168 Y116.604 E15.67488
G1 X162.445 Y115.295 E15.71287
G1 X161.302 Y113.709 E15.74719
G1 X160.769 Y111.767 E15.78255
G1 X160.769 Y106.574 E15.87372
G1 X161.229 Y104.751 E15.90673
G1 X162.668 Y102.873 E15.94826
G1 X164.327 Y101.846 E15.98252
G1 X166.091 Y101.356 E16.01466
G1 X171.26 Y101.356 E16.10541
G1 X173.083 Y101.816 E16.13842
G1 X174.961 Y103.255 E16.17996
G1 X175.988 Y104.914 E16.21421
G1 X176.478 Y106.678 E16.24636
G1 X176.478 Y111.926 E16.33849
G1 X175.947 Y113.745 E16.37176
G1 X175.558 Y114.416 E16.38538
G1 X174.142 Y115.871 E16.42102
G1 X172.975 Y116.595 E16.44513
G1 X171.139 Y117.064 E16.4784
G0 F9000 X171.087 Y116.664
G1 F1800 X166.031 Y116.664 E16.56717
G1 X164.344 Y116.236 E16.59772
G1 X162.737 Y115.015 E16.63316
G1 X161.669 Y113.533 E16.66523
G1 X161.169 Y111.712 E16.69838
G1 X161.169 Y106.624 E16.78771
G1 X161.597 Y104.927 E16.81844
G1 X162.939 Y103.176 E16.85717
G1 X164.491 Y102.215 E16.88922
G1 X166.144 Y101.756 E16.91934
G1 X171.21 Y101.756 E17.00828
G1 X172.907 Y102.184 E17.039
G1 X174.658 Y103.526 E17.07774
G1 X175.619 Y105.078 E17.10978
G1 X176.078 Y106.731 E17.1399
G1 X176.078 Y111.869 E17.23011
G1 X175.577 Y113.586 E17.26151
G1 X175.237 Y114.172 E17.2734
G1 X173.889 Y115.557 E17.30734
G1 X172.817 Y116.222 E17.32948
G1 X171.087 Y116.664 E17.36083
G0 F9000 X171.035 Y116.264
G1 F1800 X166.082 Y116.264 E17.44779
G1 X164.52 Y115.868 E17.47608
G1 X163.029 Y114.735 E17.50896
G1 X162.036 Y113.357 E17.53878
G1 X161.569 Y111.657 E17.56973
G1 X161.569 Y106.674 E17.65721
G1 X161.965 Y105.105 E17.68562
G1 X163.213 Y103.476 E17.72165
G1 X164.653 Y102.585 E17.75138
G1 X166.197 Y102.156 E17.77951
G1 X171.16 Y102.156 E17.86665
G1 X172.729 Y102.552 E17.89506
G1 X174.358 Y103.8 E17.93109
G1 X175.249 Y105.24 E17.96081
G1 X175.678 Y106.784 E17.98895
G1 X175.678 Y111.812 E18.07722
G1 X175.207 Y113.427 E18.10676
G1 X174.916 Y113.928 E18.11693
G1 X173.636 Y115.243 E18.14915
G1 X172.659 Y115.849 E18.16933
G1 X171.035 Y116.264 E18.19876
G0 F9000 X170.983 Y115.864
G1 F1800 X166.133 Y115.864 E18.28391
G1 X164.696 Y115.5 E18.30993
