;START_OF_HEADER
;HEADER_VERSION:0.1
;FLAVOR:Griffin
;GENERATOR.NAME:Cura_SteamEngine
;GENERATOR.VERSION:5.10.2
;GENERATOR.BUILD_DATE:2025-07-28
;TARGET_MACHINE.NAME:Ultimaker S5
;EXTRUDER_TRAIN.0.INITIAL_TEMPERATURE:195
;EXTRUDER_TRAIN.0.MATERIAL.VOLUME_USED:17225
;EXTRUDER_TRAIN.0.MATERIAL.GUID:506c9f0d-e3aa-4bd4-b2d2-23e2425b1aa9
;EXTRUDER_TRAIN.0.NOZZLE.DIAMETER:0.4
;EXTRUDER_TRAIN.0.NOZZLE.NAME:AA 0.4
;BUILD_PLATE.INITIAL_TEMPERATURE:60
;BUILD_VOLUME.TEMPERATURE:28
;PRINT.TIME:5732
;PRINT.GROUPS:1
;PRINT.SIZE.MIN.X:98.237
;PRINT.SIZE.MIN.Y:62.615
;PRINT.SIZE.MIN.Z:0.24
;PRINT.SIZE.MAX.X:330
;PRINT.SIZE.MAX.Y:237
;PRINT.SIZE.MAX.Z:20.001
;SLICE_UUID:7f136701-27cb-4219-85e8-1b3146d0432f
;END_OF_HEADER
;Generated with Cura_SteamEngine 5.10.2
T0

M82 ;absolute extrusion mode
G92 E0
M190 S60
M104 S195
M109 S195
G280 S1
G0 Z20.001
G1 F2700 E-6.5
;LAYER_COUNT:79
G0 F9000 X330 Y237
;LAYER:0
M106 S255
M204 S1000
M205 X20 Y20
G1 F600 Z2.24
G0 F9000 X176.794 Y140.217 Z2.24
;TYPE:SKIRT
G1 F600 Z0.24
G1 F2700 E0
G1 F1800 X175.696 Y141.652 E0.02719
G1 X173.849 Y143.128 E0.06277
G1 X171.351 Y143.817 E0.10176
G1 X165.027 Y143.822 E0.19693
G1 X162.96 Y142.93 E0.23081
G1 X161.539 Y141.846 E0.2577
G1 X160.056 Y139.99 E0.29346
G1 X159.368 Y137.499 E0.33234
G1 X159.368 Y132.246 E0.41139
G1 X159.816 Y130.263 E0.44199
G1 X161.28 Y127.734 E0.48596
G1 X162.353 Y126.678 E0.50862
G1 X165.471 Y125.547 E0.55853
G1 X171.404 Y125.538 E0.64781
G1 X173.249 Y126.085 E0.67677
G1 X175.114 Y127.15 E0.70909
G1 X176.844 Y129.354 E0.75125
G1 X177.678 Y131.791 E0.79001
G1 X177.678 Y138.177 E0.88611
G1 X176.794 Y140.217 E0.91957
G0 F9000 X176.447 Y140.012
G1 F1800 X175.409 Y141.369 E0.94528
G1 X173.663 Y142.764 E0.97891
G1 X171.296 Y143.417 E1.01586
G1 X165.109 Y143.422 E1.10897
G1 X163.165 Y142.583 E1.14083
G1 X161.82 Y141.557 E1.16629
G1 X160.42 Y139.805 E1.20003
G1 X159.768 Y137.444 E1.23689
G1 X159.768 Y132.29 E1.31445
G1 X160.193 Y130.41 E1.34346
G1 X161.598 Y127.983 E1.38566
G1 X162.572 Y127.024 E1.40623
G1 X165.541 Y125.947 E1.45376
G1 X171.344 Y125.938 E1.54108
G1 X173.095 Y126.457 E1.56857
G1 X174.846 Y127.457 E1.59891
G1 X176.489 Y129.55 E1.63895
G1 X177.278 Y131.856 E1.67563
G1 X177.278 Y138.094 E1.7695
G1 X176.447 Y140.012 E1.80096
G0 F9000 X176.1 Y139.807
G1 F1800 X175.122 Y141.086 E1.82519
G1 X173.477 Y142.4 E1.85687
G1 X171.241 Y143.017 E1.89177
G1 X165.19 Y143.022 E1.98283
G1 X163.371 Y142.237 E2.01265
G1 X162.101 Y141.268 E2.03668
G1 X160.784 Y139.62 E2.06843
G1 X160.168 Y137.389 E2.10326
G1 X160.168 Y132.334 E2.17933
G1 X160.57 Y130.557 E2.20675
G1 X161.916 Y128.232 E2.24717
G1 X162.791 Y127.37 E2.26566
G1 X165.611 Y126.347 E2.3108
G1 X171.288 Y126.338 E2.39623
G1 X172.937 Y126.827 E2.42211
G1 X174.578 Y127.764 E2.45055
G1 X176.133 Y129.745 E2.48845
G1 X176.878 Y131.922 E2.52307
G1 X176.878 Y138.011 E2.6147
G1 X176.1 Y139.807 E2.64416
G0 F9000 X175.753 Y139.602
G1 F1800 X174.835 Y140.803 E2.66691
G1 X173.291 Y142.036 E2.69664
G1 X171.186 Y142.617 E2.7295
G1 X165.272 Y142.622 E2.8185
G1 X163.576 Y141.89 E2.8463
G1 X162.382 Y140.979 E2.8689
G1 X161.148 Y139.435 E2.89864
G1 X160.568 Y137.334 E2.93144
G1 X160.568 Y132.378 E3.00602
G1 X160.947 Y130.704 E3.03185
G1 X162.234 Y128.481 E3.0705
G1 X163.01 Y127.716 E3.0869
G1 X165.681 Y126.747 E3.12966
G1 X171.228 Y126.738 E3.21313
G1 X172.783 Y127.199 E3.23754
G1 X174.31 Y128.071 E3.264
G1 X175.778 Y129.941 E3.29978
G1 X176.478 Y131.987 E3.33232
G1 X176.478 Y137.928 E3.42172
G1 X175.753 Y139.602 E3.44917
G0 F9000 X175.406 Y139.397
G1 F1800 X174.548 Y140.52 E3.47044
G1 X173.105 Y141.672 E3.49823
G1 X171.131 Y142.217 E3.52904
G1 X165.353 Y142.222 E3.61599
G1 X163.782 Y141.544 E3.64174
G1 X162.663 Y140.69 E3.66293
G1 X161.513 Y139.251 E3.69065
G1 X160.968 Y137.278 E3.72145
G1 X160.968 Y132.422 E3.79452
G1 X161.324 Y130.851 E3.81876
G1 X162.552 Y128.73 E3.85565
G1 X163.229 Y128.062 E3.86996
G1 X165.751 Y127.147 E3.91033
G1 X171.168 Y127.138 E3.99185
G1 X172.629 Y127.571 E4.01478
G1 X174.042 Y128.378 E4.03927
G1 X175.422 Y130.136 E4.0729
G1 X176.078 Y132.053 E4.10339
G1 X176.078 Y137.845 E4.19055
G1 X175.406 Y139.397 E4.216
G0 F9000 X175.059 Y139.192
G1 F1800 X174.261 Y140.237 E4.23579
G1 X172.919 Y141.308 E4.26162
G1 X171.076 Y141.817 E4.2904
G1 X165.434 Y141.822 E4.3753
G1 X163.988 Y141.198 E4.399
G1 X162.944 Y140.401 E4.41877
G1 X161.878 Y139.067 E4.44446
G1 X161.368 Y137.222 E4.47327
G1 X161.368 Y132.466 E4.54484
G1 X161.701 Y130.998 E4.56749
G1 X162.87 Y128.979 E4.6026
G1 X163.448 Y128.408 E4.61483
G1 X165.821 Y127.547 E4.65281
G1 X171.112 Y127.538 E4.73243
G1 X172.471 Y127.941 E4.75377
G1 X173.774 Y128.685 E4.77635
G1 X175.067 Y130.332 E4.80786
G1 X175.678 Y132.118 E4.83626
G1 X175.678 Y137.762 E4.92119
G1 X175.059 Y139.192 E4.94464
G0 F9000 X174.712 Y138.987
G1 F1800 X173.972 Y139.956 E4.96299
G1 X172.735 Y140.943 E4.98681
G1 X171.019 Y141.417 E5.0136
G1 X165.515 Y141.422 E5.09642
G1 X164.194 Y140.852 E5.11807
G1 X163.227 Y140.114 E5.13638
G1 X162.242 Y138.881 E5.16013
G1 X161.768 Y137.166 E5.1869
G1 X161.768 Y132.51 E5.25697
G1 X162.077 Y131.147 E5.278
G1 X163.191 Y129.224 E5.31144
G1 X163.666 Y128.754 E5.3215
G1 X165.891 Y127.947 E5.35712
G1 X171.052 Y127.938 E5.43478
G1 X172.317 Y128.313 E5.45464
G1 X173.506 Y128.992 E5.47524
G1 X174.711 Y130.527 E5.50461
G1 X175.278 Y132.184 E5.53096
G1 X175.278 Y137.679 E5.61365
G1 X174.712 Y138.987 E5.6351
G0 F9000 X174.365 Y138.782
G1 F1800 X173.683 Y139.675 E5.65201
G1 X172.55 Y140.579 E5.67382
G1 X170.964 Y141.017 E5.69858
G1 X165.596 Y141.022 E5.77936
G1 X164.4 Y140.506 E5.79896
G1 X163.51 Y139.827 E5.81581
G1 X162.606 Y138.695 E5.83761
G1 X162.168 Y137.11 E5.86235
G1 X162.168 Y132.554 E5.93092
G1 X162.453 Y131.296 E5.95033
G1 X163.537 Y129.425 E5.98287
G1 X163.886 Y129.1 E5.99004
G1 X165.961 Y128.347 E6.02326
G1 X170.992 Y128.338 E6.09897
G1 X172.163 Y128.685 E6.11735
G1 X173.238 Y129.299 E6.13598
G1 X174.355 Y130.722 E6.1632
G1 X174.878 Y132.25 E6.18751
G1 X174.878 Y137.596 E6.26795
G1 X174.365 Y138.782 E6.2874
G0 F9000 X174.018 Y138.577
G1 F1800 X173.394 Y139.394 E6.30287
G1 X172.365 Y140.215 E6.32268
G1 X170.909 Y140.617 E6.34541
G1 X165.677 Y140.622 E6.42414
G1 X164.606 Y140.16 E6.4417
G1 X163.793 Y139.54 E6.45708
G1 X162.97 Y138.509 E6.47693
G1 X162.568 Y137.054 E6.49965
G1 X162.568 Y132.598 E6.56671
G1 X162.829 Y131.445 E6.5845
G1 X163.883 Y129.626 E6.61613
G1 X164.022 Y129.476 E6.61921
G1 X166.031 Y128.747 E6.65137
G1 X170.936 Y128.738 E6.72518
G1 X172.005 Y129.055 E6.74196
G1 X172.97 Y129.606 E6.75868
G1 X174 Y130.918 E6.78379
G1 X174.478 Y132.315 E6.806
G1 X174.478 Y137.513 E6.88423
G1 X174.018 Y138.577 E6.90167
G0 F9000 X173.671 Y138.372
G1 F1800 X173.105 Y139.113 E6.9157
G1 X172.18 Y139.851 E6.93351
G1 X170.854 Y140.217 E6.95421
G1 X165.758 Y140.222 E7.0309
G1 X164.812 Y139.814 E7.0464
G1 X164.074 Y139.251 E7.06037
G1 X163.334 Y138.325 E7.07821
G1 X162.968 Y136.999 E7.09891
G1 X162.968 Y132.642 E7.16447
G1 X163.205 Y131.594 E7.18064
G1 X164.229 Y129.827 E7.21137
G1 X166.102 Y129.147 E7.24136
G1 X170.876 Y129.138 E7.3132
G1 X171.851 Y129.427 E7.32851
G1 X172.702 Y129.913 E7.34325
G1 X173.644 Y131.113 E7.36621
G1 X174.078 Y132.381 E7.38638
G1 X174.078 Y137.43 E7.46236
G1 X173.671 Y138.372 E7.4778
G0 F9000 X173.324 Y138.167
G1 F1800 X172.816 Y138.832 E7.49039
G1 X171.995 Y139.487 E7.5062
G1 X170.799 Y139.817 E7.52487
G1 X165.839 Y139.822 E7.59951
G1 X165.018 Y139.468 E7.61296
G1 X164.355 Y138.962 E7.62551
G1 X163.699 Y138.141 E7.64133
G1 X163.368 Y136.943 E7.66003
G1 X163.368 Y132.686 E7.72409
G1 X163.581 Y131.743 E7.73864
G1 X164.502 Y130.154 E7.76628
G1 X166.173 Y129.547 E7.79303
G1 X170.816 Y129.538 E7.8629
G1 X171.697 Y129.799 E7.87673
G1 X172.434 Y130.22 E7.8895
G1 X173.288 Y131.308 E7.91032
G1 X173.678 Y132.447 E7.92843
G1 X173.678 Y137.347 E8.00217
G1 X173.324 Y138.167 E8.01561
G0 F9000 X172.978 Y137.961
G1 F1800 X172.527 Y138.551 E8.02679
G1 X171.81 Y139.123 E8.04059
G1 X170.744 Y139.417 E8.05723
G1 X165.92 Y139.422 E8.12982
G1 X165.224 Y139.122 E8.14123
G1 X164.636 Y138.673 E8.15236
G1 X164.063 Y137.956 E8.16617
G1 X163.768 Y136.888 E8.18285
G1 X163.768 Y132.73 E8.24542
G1 X163.957 Y131.892 E8.25835
G1 X164.775 Y130.481 E8.28289
G1 X166.244 Y129.947 E8.30641
G1 X170.76 Y129.938 E8.37437
G1 X171.539 Y130.169 E8.3866
G1 X172.166 Y130.527 E8.39746
G1 X172.932 Y131.503 E8.41613
G1 X173.278 Y132.513 E8.4322
G1 X173.278 Y137.265 E8.50371
G1 X172.978 Y137.961 E8.51512
G0 F9000 X172.632 Y137.755
G1 F1800 X172.238 Y138.27 E8.52487
G1 X171.625 Y138.759 E8.53667
G1 X170.689 Y139.017 E8.55128
G1 X166.001 Y139.022 E8.62183
G1 X165.43 Y138.776 E8.63119
G1 X164.917 Y138.384 E8.6409
G1 X164.427 Y137.771 E8.65271
G1 X164.168 Y136.833 E8.66736
G1 X164.168 Y132.774 E8.72844
G1 X164.334 Y132.039 E8.73978
G1 X165.047 Y130.808 E8.76119
G1 X166.315 Y130.347 E8.78149
G1 X170.7 Y130.338 E8.84748
G1 X171.385 Y130.541 E8.85823
G1 X171.898 Y130.834 E8.86712
G1 X172.576 Y131.698 E8.88364
G1 X172.878 Y132.579 E8.89766
G1 X172.878 Y137.184 E8.96696
G1 X172.632 Y137.755 E8.97631
G0 F9000 X172.314 Y137.512
G1 F1800 X171.949 Y137.989 E8.98535
G1 X171.441 Y138.395 E8.99514
G1 X170.634 Y138.617 E9.00773
G1 X166.084 Y138.622 E9.0762
G1 X165.673 Y138.458 E9.08286
G1 X165.198 Y138.095 E9.09186
G1 X164.791 Y137.586 E9.10167
G1 X164.568 Y136.778 E9.11428
G1 X164.568 Y132.818 E9.17387
G1 X164.71 Y132.188 E9.18359
G1 X165.32 Y131.135 E9.2019
G1 X166.386 Y130.747 E9.21897
G1 X170.644 Y130.738 E9.28305
G1 X171.271 Y130.924 E9.29289
G1 X171.63 Y131.141 E9.29921
G1 X172.22 Y131.893 E9.31359
G1 X172.478 Y132.645 E9.32555
G1 X172.478 Y137.101 E9.39261
G1 X172.314 Y137.512 E9.39927
G0 F9000 X171.996 Y137.269
G1 F1800 X171.662 Y137.706 E9.40755
G1 X171.255 Y138.031 E9.41538
G1 X170.579 Y138.217 E9.42593
G1 X166.159 Y138.222 E9.49245
G1 X165.916 Y138.14 E9.49631
G1 X165.479 Y137.806 E9.50458
G1 X165.155 Y137.401 E9.51239
G1 X164.968 Y136.723 E9.52297
G1 X164.968 Y132.862 E9.58108
G1 X165.086 Y132.337 E9.58917
G1 X165.593 Y131.462 E9.60439
G1 X166.457 Y131.147 E9.61823
G1 X170.588 Y131.138 E9.6804
G1 X171.157 Y131.307 E9.68933
G1 X171.358 Y131.443 E9.69298
G1 X171.864 Y132.088 E9.70532
G1 X172.078 Y132.711 E9.71523
G1 X172.078 Y137.026 E9.78016
G1 X171.996 Y137.269 E9.78402
G0 F9000 X171.678 Y137.026
G1 F1800 X171.344 Y137.463 E9.7923
G1 X171.07 Y137.667 E9.79744
G1 X170.524 Y137.817 E9.80596
G1 X166.159 Y137.822 E9.87165
G1 X165.722 Y137.488 E9.87992
G1 X165.519 Y137.216 E9.88503
G1 X165.368 Y136.668 E9.89359
G1 X165.368 Y132.862 E9.95086
G1 X165.432 Y132.538 E9.95583
G1 X165.866 Y131.789 E9.96886
G1 X166.529 Y131.547 E9.97948
G1 X170.532 Y131.538 E10.03972
G1 X171.043 Y131.69 E10.04774
G1 X171.508 Y132.283 E10.05908
G1 X171.678 Y132.777 E10.06694
G1 X171.678 Y137.026 E10.13088
G0 F9000 X170.878 Y136.78
G1 F1800 X170.729 Y136.952 E10.13431
G1 X170.524 Y137.017 E10.13754
G1 X166.405 Y137.022 E10.19953
G1 X166.234 Y136.873 E10.20294
G1 X166.168 Y136.668 E10.20618
G1 X166.168 Y132.862 E10.26346
G1 X166.393 Y132.416 E10.27097
G1 X166.601 Y132.347 E10.27427
G1 X170.534 Y132.338 E10.33346
G1 X170.878 Y132.777 E10.34185
G1 X170.878 Y136.78 E10.40209
G0 F9000 X171.278 Y136.904
G1 F1800 X171.031 Y137.214 E10.40805
G1 X170.85 Y137.333 E10.41131
G1 X170.524 Y137.417 E10.41638
G1 X166.281 Y137.422 E10.48023
G1 X165.971 Y137.175 E10.48619
G1 X165.853 Y136.996 E10.48942
G1 X165.768 Y136.668 E10.49452
G1 X165.768 Y132.862 E10.55179
G1 X165.811 Y132.682 E10.55458
G1 X166.149 Y132.099 E10.56472
G1 X166.6 Y131.947 E10.57188
G1 X170.533 Y131.938 E10.63107
G1 X170.771 Y131.992 E10.63474
G1 X171.193 Y132.53 E10.64503
G1 X171.278 Y132.777 E10.64896
G1 X171.278 Y136.904 E10.71107
G1 F2700 E4.21107
G0 F9000 X173.564 Y136.904
G0 X173.555 Y130.584
G0 X171.146 Y118.264
G1 F2700 E10.71107
G1 F1800 X165.921 Y118.264 E10.78969
G1 X163.952 Y117.824 E10.82006
G1 X161.905 Y116.463 E10.85705
G1 X160.267 Y114.48 E10.89575
G1 X159.569 Y111.928 E10.93557
G1 X159.569 Y106.418 E11.01848
G1 X160.132 Y104.185 E11.05314
G1 X161.85 Y101.961 E11.09543
G1 X163.877 Y100.711 E11.13126
G1 X165.898 Y100.156 E11.1628
G1 X171.416 Y100.156 E11.24584
G1 X173.649 Y100.719 E11.2805
G1 X175.873 Y102.437 E11.32279
G1 X177.123 Y104.464 E11.35862
G1 X177.678 Y106.485 E11.39016
G1 X177.678 Y112.243 E11.47681
G1 X176.838 Y114.809 E11.51744
G1 X175.141 Y116.58 E11.55435
G1 X173.415 Y117.768 E11.58588
G1 X171.146 Y118.264 E11.62083
G0 F9000 X171.102 Y117.864
G1 F1800 X173.252 Y117.394 E11.65395
G1 X174.881 Y116.273 E11.68371
G1 X176.486 Y114.597 E11.71863
G1 X177.278 Y112.179 E11.75692
G1 X177.278 Y106.54 E11.84178
G1 X176.752 Y104.626 E11.87165
G1 X175.571 Y102.71 E11.90552
G1 X173.469 Y101.086 E11.94549
G1 X171.366 Y100.556 E11.97813
G1 X165.953 Y100.556 E12.05959
G1 X164.039 Y101.082 E12.08946
G1 X162.123 Y102.263 E12.12333
G1 X160.499 Y104.365 E12.1633
G1 X159.969 Y106.468 E12.19594
G1 X159.969 Y111.874 E12.27729
G1 X160.63 Y114.292 E12.31501
G1 X162.176 Y116.163 E12.35153
G1 X164.112 Y117.45 E12.38652
G1 X165.963 Y117.864 E12.41506
G1 X171.102 Y117.864 E12.49239
G0 F9000 X171.058 Y117.464
G1 F1800 X166.005 Y117.464 E12.56843
G1 X164.273 Y117.077 E12.59514
G1 X162.446 Y115.862 E12.62816
G1 X160.994 Y114.104 E12.66247
G1 X160.369 Y111.819 E12.69812
G1 X160.369 Y106.518 E12.77789
G1 X160.866 Y104.545 E12.80851
G1 X162.396 Y102.565 E12.84616
G1 X164.201 Y101.453 E12.87807
G1 X166.008 Y100.956 E12.90627
G1 X171.316 Y100.956 E12.98615
G1 X173.289 Y101.453 E13.01677
G1 X175.269 Y102.983 E13.05442
G1 X176.381 Y104.788 E13.08632
G1 X176.878 Y106.595 E13.11453
G1 X176.878 Y112.116 E13.19761
G1 X176.135 Y114.385 E13.23354
G1 X174.621 Y115.966 E13.26648
G1 X173.089 Y117.02 E13.29446
G1 X171.058 Y117.464 E13.32575
G0 F9000 X171.014 Y117.064
G1 F1800 X166.047 Y117.064 E13.40049
G1 X164.433 Y116.703 E13.42538
G1 X162.717 Y115.562 E13.45639
G1 X161.357 Y113.916 E13.48852
G1 X160.769 Y111.765 E13.52208
G1 X160.769 Y106.568 E13.60029
G1 X161.234 Y104.723 E13.62892
G1 X162.667 Y102.869 E13.66418
G1 X164.363 Y101.824 E13.69416
G1 X166.063 Y101.356 E13.72069
G1 X171.266 Y101.356 E13.79899
G1 X173.111 Y101.821 E13.82762
G1 X174.965 Y103.254 E13.86289
G1 X176.01 Y104.95 E13.89286
G1 X176.478 Y106.65 E13.9194
G1 X176.478 Y112.053 E14.0007
G1 X175.784 Y114.173 E14.03427
G1 X174.361 Y115.659 E14.06523
G1 X172.926 Y116.646 E14.09144
G1 X171.014 Y117.064 E14.1209
G0 F9000 X170.97 Y116.664
G1 F1800 X166.089 Y116.664 E14.19435
G1 X164.594 Y116.33 E14.2174
G1 X162.987 Y115.261 E14.24644
G1 X161.721 Y113.728 E14.27636
G1 X161.169 Y111.71 E14.30785
G1 X161.169 Y106.618 E14.38447
G1 X161.602 Y104.901 E14.41112
G1 X162.938 Y103.173 E14.44399
G1 X164.525 Y102.195 E14.47204
G1 X166.118 Y101.756 E14.49691
G1 X171.216 Y101.756 E14.57362
G1 X172.933 Y102.189 E14.60027
G1 X174.661 Y103.525 E14.63314
G1 X175.639 Y105.112 E14.66119
G1 X176.078 Y106.705 E14.68606
G1 X176.078 Y111.989 E14.76558
G1 X175.432 Y113.961 E14.7968
G1 X174.101 Y115.352 E14.82577
G1 X172.763 Y116.272 E14.85021
G1 X170.97 Y116.664 E14.87783
G0 F9000 X170.926 Y116.264
G1 F1800 X166.131 Y116.264 E14.94999
G1 X164.755 Y115.957 E14.9712
G1 X163.257 Y114.96 E14.99828
G1 X162.085 Y113.54 E15.02599
G1 X161.569 Y111.655 E15.0554
G1 X161.569 Y106.668 E15.13044
G1 X161.97 Y105.079 E15.15511
G1 X163.21 Y103.475 E15.18562
G1 X164.684 Y102.566 E15.21168
G1 X166.173 Y102.156 E15.23492
G1 X171.166 Y102.156 E15.31005
G1 X172.755 Y102.557 E15.33472
G1 X174.359 Y103.797 E15.36522
G1 X175.268 Y105.271 E15.39128
G1 X175.678 Y106.76 E15.41453
G1 X175.678 Y111.926 E15.49227
G1 X175.081 Y113.749 E15.52113
G1 X173.841 Y115.045 E15.54812
G1 X172.6 Y115.898 E15.57079
G1 X170.926 Y116.264 E15.59657
G0 F9000 X170.881 Y115.864
G1 F1800 X166.173 Y115.864 E15.66742
G1 X164.915 Y115.583 E15.68682
G1 X163.53 Y114.662 E15.71185
G1 X162.448 Y113.351 E15.73743
G1 X161.969 Y111.6 E15.76475
G1 X161.969 Y106.718 E15.83821
G1 X162.338 Y105.257 E15.86089
G1 X163.482 Y103.777 E15.88904
G1 X164.843 Y102.937 E15.91311
G1 X166.228 Y102.556 E15.93472
G1 X171.116 Y102.556 E16.00828
G1 X172.577 Y102.925 E16.03095
